static/img/kroki/e82c054c4c85c12748981360ff9c393e.svg

<?xml version="1.0" encoding="us-ascii" standalone="no"?><svg xmlns="http://www.w3.org/2000/svg" xmlns:xlink="http://www.w3.org/1999/xlink" contentStyleType="text/css" height="352px" preserveAspectRatio="none" style="width:472px;height:352px;" version="1.1" viewBox="0 0 472 352" width="472px" zoomAndPan="magnify"><defs/><g><!--class aws_apigateway_authorizer--><g id="elem_aws_apigateway_authorizer"><rect codeLine="22" fill="#3D176E" height="39.7891" id="aws_apigateway_authorizer" rx="2.5" ry="2.5" style="stroke:#000D19;stroke-width:0.5;" width="276" x="7" y="206.58"/><ellipse cx="22" cy="226.4745" fill="#ADD1B2" rx="11" ry="11" style="stroke:#181818;stroke-width:1.0;"/><path d="M24.9688,232.1152 Q24.3906,232.412 23.75,232.5527 Q23.1094,232.7089 22.4063,232.7089 Q19.9063,232.7089 18.5781,231.0683 Q17.2656,229.412 17.2656,226.287 Q17.2656,223.162 18.5781,221.5058 Q19.9063,219.8495 22.4063,219.8495 Q23.1094,219.8495 23.75,220.0058 Q24.4063,220.162 24.9688,220.4589 L24.9688,223.1777 Q24.3438,222.5995 23.75,222.3339 Q23.1563,222.0527 22.5313,222.0527 Q21.1875,222.0527 20.5,223.1308 Q19.8125,224.1933 19.8125,226.287 Q19.8125,228.3808 20.5,229.4589 Q21.1875,230.5214 22.5313,230.5214 Q23.1563,230.5214 23.75,230.2558 Q24.3438,229.9745 24.9688,229.3964 L24.9688,232.1152 Z " fill="#000000"/><text fill="#D9B8FF" font-family="Helvetica" font-size="17" lengthAdjust="spacing" textLength="234" x="41" y="232.3598">aws_apigateway_authorizer</text></g><!--class aws_apigateway_resource--><g id="elem_aws_apigateway_resource"><rect codeLine="24" fill="#3D176E" height="39.7891" id="aws_apigateway_resource" rx="2.5" ry="2.5" style="stroke:#000D19;stroke-width:0.5;" width="261" x="145.5" y="106.79"/><ellipse cx="160.5" cy="126.6845" fill="#ADD1B2" rx="11" ry="11" style="stroke:#181818;stroke-width:1.0;"/><path d="M163.4688,132.3252 Q162.8906,132.622 162.25,132.7627 Q161.6094,132.9189 160.9063,132.9189 Q158.4063,132.9189 157.0781,131.2783 Q155.7656,129.622 155.7656,126.497 Q155.7656,123.372 157.0781,121.7158 Q158.4063,120.0595 160.9063,120.0595 Q161.6094,120.0595 162.25,120.2158 Q162.9063,120.372 163.4688,120.6689 L163.4688,123.3877 Q162.8438,122.8095 162.25,122.5439 Q161.6563,122.2627 161.0313,122.2627 Q159.6875,122.2627 159,123.3408 Q158.3125,124.4033 158.3125,126.497 Q158.3125,128.5908 159,129.6689 Q159.6875,130.7314 161.0313,130.7314 Q161.6563,130.7314 162.25,130.4658 Q162.8438,130.1845 163.4688,129.6064 L163.4688,132.3252 Z " fill="#000000"/><text fill="#D9B8FF" font-family="Helvetica" font-size="17" lengthAdjust="spacing" textLength="219" x="179.5" y="132.5698">aws_apigateway_resource</text></g><!--class aws_apigateway_rest_api--><g id="elem_aws_apigateway_rest_api"><rect codeLine="26" fill="#3D176E" height="39.7891" id="aws_apigateway_rest_api" rx="2.5" ry="2.5" style="stroke:#000D19;stroke-width:0.5;" width="256" x="148" y="7"/><ellipse cx="163" cy="26.8945" fill="#ADD1B2" rx="11" ry="11" style="stroke:#181818;stroke-width:1.0;"/><path d="M165.9688,32.5352 Q165.3906,32.832 164.75,32.9727 Q164.1094,33.1289 163.4063,33.1289 Q160.9063,33.1289 159.5781,31.4883 Q158.2656,29.832 158.2656,26.707 Q158.2656,23.582 159.5781,21.9258 Q160.9063,20.2695 163.4063,20.2695 Q164.1094,20.2695 164.75,20.4258 Q165.4063,20.582 165.9688,20.8789 L165.9688,23.5977 Q165.3438,23.0195 164.75,22.7539 Q164.1563,22.4727 163.5313,22.4727 Q162.1875,22.4727 161.5,23.5508 Q160.8125,24.6133 160.8125,26.707 Q160.8125,28.8008 161.5,29.8789 Q162.1875,30.9414 163.5313,30.9414 Q164.1563,30.9414 164.75,30.6758 Q165.3438,30.3945 165.9688,29.8164 L165.9688,32.5352 Z " fill="#000000"/><text fill="#D9B8FF" font-family="Helvetica" font-size="17" lengthAdjust="spacing" textLength="214" x="182" y="32.7798">aws_apigateway_rest_api</text></g><!--class aws_lambda_function--><g id="elem_aws_lambda_function"><rect codeLine="28" fill="#3D176E" height="39.7891" id="aws_lambda_function" rx="2.5" ry="2.5" style="stroke:#000D19;stroke-width:0.5;" width="224" x="224" y="306.37"/><ellipse cx="239" cy="326.2645" fill="#ADD1B2" rx="11" ry="11" style="stroke:#181818;stroke-width:1.0;"/><path d="M241.9688,331.9052 Q241.3906,332.202 240.75,332.3427 Q240.1094,332.4989 239.4063,332.4989 Q236.9063,332.4989 235.5781,330.8583 Q234.2656,329.202 234.2656,326.077 Q234.2656,322.952 235.5781,321.2958 Q236.9063,319.6395 239.4063,319.6395 Q240.1094,319.6395 240.75,319.7958 Q241.4063,319.952 241.9688,320.2489 L241.9688,322.9677 Q241.3438,322.3895 240.75,322.1239 Q240.1563,321.8427 239.5313,321.8427 Q238.1875,321.8427 237.5,322.9208 Q236.8125,323.9833 236.8125,326.077 Q236.8125,328.1708 237.5,329.2489 Q238.1875,330.3114 239.5313,330.3114 Q240.1563,330.3114 240.75,330.0458 Q241.3438,329.7645 241.9688,329.1864 L241.9688,331.9052 Z " fill="#000000"/><text fill="#D9B8FF" font-family="Helvetica" font-size="17" lengthAdjust="spacing" textLength="182" x="258" y="332.1498">aws_lambda_function</text></g><!--link aws_apigateway_authorizer to aws_lambda_function--><g id="link_aws_apigateway_authorizer_aws_lambda_function"><path codeLine="30" d="M182.74,246.8 C216.22,263.94 259.5399,286.1145 292.9999,303.2545 " fill="none" id="aws_apigateway_authorizer-to-aws_lambda_function" style="stroke:#1A83AF;stroke-width:2.0;"/><polygon fill="#1A83AF" points="298.34,305.99,292.1535,298.3267,293.8899,303.7104,288.5061,305.4468,298.34,305.99" style="stroke:#1A83AF;stroke-width:2.0;"/></g><!--link aws_apigateway_resource to aws_apigateway_authorizer--><g id="link_aws_apigateway_resource_aws_apigateway_authorizer"><path codeLine="31" d="M250.12,147.01 C227.15,164.15 198.5873,185.4697 175.6373,202.6097 " fill="none" id="aws_apigateway_resource-to-aws_apigateway_authorizer" style="stroke:#1A83AF;stroke-width:2.0;"/><polygon fill="#1A83AF" points="170.83,206.2,180.4344,204.0194,174.8361,203.2081,175.6474,197.6097,170.83,206.2" style="stroke:#1A83AF;stroke-width:2.0;"/></g><!--link aws_apigateway_resource to aws_lambda_function--><g id="link_aws_apigateway_resource_aws_lambda_function"><path codeLine="32" d="M281.82,146.82 C286.69,162.79 293.8,186.17 300,206.58 C310.64,241.61 321.2795,276.708 328.3995,300.198 " fill="none" id="aws_apigateway_resource-to-aws_lambda_function" style="stroke:#1A83AF;stroke-width:2.0;"/><polygon fill="#1A83AF" points="330.14,305.94,331.3573,296.1667,328.6896,301.155,323.7013,298.4873,330.14,305.94" style="stroke:#1A83AF;stroke-width:2.0;"/></g><!--link aws_apigateway_rest_api to aws_apigateway_authorizer--><g id="link_aws_apigateway_rest_api_aws_apigateway_authorizer"><path codeLine="33" d="M206.45,47.2 C176.85,59.24 145.23,78.08 128,106.79 C109.36,137.85 121.4323,176.0555 132.6723,200.8455 " fill="none" id="aws_apigateway_rest_api-to-aws_apigateway_authorizer" style="stroke:#1A83AF;stroke-width:2.0;"/><polygon fill="#1A83AF" points="135.15,206.31,135.0765,196.4614,133.0853,201.7562,127.7905,199.765,135.15,206.31" style="stroke:#1A83AF;stroke-width:2.0;"/></g><!--link aws_apigateway_rest_api to aws_apigateway_resource--><g id="link_aws_apigateway_rest_api_aws_apigateway_resource"><path codeLine="34" d="M276,47.22 C276,64.36 276,83.28 276,100.41 " fill="none" id="aws_apigateway_rest_api-to-aws_apigateway_resource" style="stroke:#1A83AF;stroke-width:2.0;"/><polygon fill="#1A83AF" points="276,106.41,280,97.41,276,101.41,272,97.41,276,106.41" style="stroke:#1A83AF;stroke-width:2.0;"/></g><!--link aws_apigateway_rest_api to aws_lambda_function--><g id="link_aws_apigateway_rest_api_aws_lambda_function"><path codeLine="35" d="M345.55,47.2 C375.15,59.24 406.77,78.08 424,106.79 C465.14,175.34 396.2211,262.2204 359.4111,301.5304 " fill="none" id="aws_apigateway_rest_api-to-aws_lambda_function" style="stroke:#1A83AF;stroke-width:2.0;"/><polygon fill="#1A83AF" points="355.31,305.91,364.3814,302.0746,358.7276,302.2603,358.5419,296.6065,355.31,305.91" style="stroke:#1A83AF;stroke-width:2.0;"/></g><!--SRC=[dP1FIyD04CNl_HGBFHSQYxQz2B5Gz5B4UXCfa-niipJP3RCJGnM_kqshikPFKppklj-RzsOIBL5WblDUP9X5I6xWTjhaG929aCYM2vjQ4aEbG4scTN5f3VS2AyXGt6FwXgnZg1FFYOvt1fqJLvvq1_5kIxOmyZIU2OmxI6ZOenOfE1SoauuAHg-Cd4SpfUfaVUXm8eFf3JOmInBf6ncFnpAOrv7UgBDx_n9h_OuYy8-sieoDces88tMsPKLu9HkB_kYT7Hz1IcssujhxUpfr8eFqvt-TWBHbHIj8dH_Z60ajxtDSDBR2-KogQIlyq0N7rUK4b6u3kTu2Omdx3HISM3gSaiJ7uBET8NIse1ZF4bozQqGAMIHXemeJixRcg7RdZrw6GJYRXClNqMsRVT1Lgs5idN-vlJ_tjEo_S_ljF-KkDzTAVm40]--></g></svg>

<svg xmlns="http://www.w3.org/2000/svg" width="472" height="352" viewBox="0 0 472 352"><rect width="276" height="39.789" x="7" y="206.58" fill="#3D176E" rx="2.5" ry="2.5" style="stroke:#000d19;stroke-width:.5"/><circle cx="22" cy="226.475" r="11" fill="#ADD1B2" style="stroke:#181818;stroke-width:1"/><path d="M24.969 232.115q-.578.297-1.219.438-.64.156-1.344.156-2.5 0-3.828-1.64-1.312-1.657-1.312-4.782t1.312-4.781q1.328-1.656 3.828-1.656.703 0 1.344.156.656.156 1.219.453v2.719q-.625-.578-1.219-.844-.594-.281-1.219-.281-1.343 0-2.031 1.078-.687 1.062-.687 3.156t.687 3.172q.688 1.062 2.031 1.062.625 0 1.219-.265.594-.281 1.219-.86z"/><text x="41" y="232.36" fill="#D9B8FF" font-family="Helvetica" font-size="17" textLength="234">aws_apigateway_authorizer</text><rect width="261" height="39.789" x="145.5" y="106.79" fill="#3D176E" rx="2.5" ry="2.5" style="stroke:#000d19;stroke-width:.5"/><circle cx="160.5" cy="126.684" r="11" fill="#ADD1B2" style="stroke:#181818;stroke-width:1"/><path d="M163.469 132.325q-.578.297-1.219.438-.64.156-1.344.156-2.5 0-3.828-1.64-1.312-1.657-1.312-4.782t1.312-4.781q1.328-1.656 3.828-1.656.703 0 1.344.156.656.156 1.219.453v2.719q-.625-.579-1.219-.844-.594-.281-1.219-.281-1.344 0-2.031 1.078-.687 1.062-.687 3.156t.687 3.172q.688 1.062 2.031 1.062.625 0 1.219-.265.594-.281 1.219-.86z"/><text x="179.5" y="132.57" fill="#D9B8FF" font-family="Helvetica" font-size="17" textLength="219">aws_apigateway_resource</text><rect width="256" height="39.789" x="148" y="7" fill="#3D176E" rx="2.5" ry="2.5" style="stroke:#000d19;stroke-width:.5"/><circle cx="163" cy="26.895" r="11" fill="#ADD1B2" style="stroke:#181818;stroke-width:1"/><path d="M165.969 32.535q-.578.297-1.219.438-.64.156-1.344.156-2.5 0-3.828-1.64-1.312-1.657-1.312-4.782t1.312-4.781q1.328-1.656 3.828-1.656.703 0 1.344.156.656.156 1.219.453v2.719q-.625-.578-1.219-.844-.594-.281-1.219-.281-1.344 0-2.031 1.078-.687 1.062-.687 3.156t.687 3.172q.688 1.062 2.031 1.062.625 0 1.219-.265.594-.281 1.219-.86z"/><text x="182" y="32.78" fill="#D9B8FF" font-family="Helvetica" font-size="17" textLength="214">aws_apigateway_rest_api</text><rect width="224" height="39.789" x="224" y="306.37" fill="#3D176E" rx="2.5" ry="2.5" style="stroke:#000d19;stroke-width:.5"/><circle cx="239" cy="326.264" r="11" fill="#ADD1B2" style="stroke:#181818;stroke-width:1"/><path d="M241.969 331.905q-.578.297-1.219.438-.64.156-1.344.156-2.5 0-3.828-1.64-1.312-1.657-1.312-4.782t1.312-4.781q1.328-1.656 3.828-1.656.703 0 1.344.156.656.156 1.219.453v2.719q-.625-.579-1.219-.844-.594-.281-1.219-.281-1.344 0-2.031 1.078-.687 1.062-.687 3.156t.687 3.172q.688 1.062 2.031 1.062.625 0 1.219-.265.594-.281 1.219-.86z"/><text x="258" y="332.15" fill="#D9B8FF" font-family="Helvetica" font-size="17" textLength="182">aws_lambda_function</text><path fill="none" d="M182.74 246.8c33.48 17.14 76.8 39.315 110.26 56.454" style="stroke:#1a83af;stroke-width:2"/><path fill="#1A83AF" d="m298.34 305.99-6.186-7.663 1.736 5.383-5.384 1.737z" style="stroke:#1a83af;stroke-width:2"/><path fill="none" d="M250.12 147.01c-22.97 17.14-51.533 38.46-74.483 55.6" style="stroke:#1a83af;stroke-width:2"/><path fill="#1A83AF" d="m170.83 206.2 9.604-2.18-5.598-.812.811-5.598z" style="stroke:#1a83af;stroke-width:2"/><path fill="none" d="M281.82 146.82c4.87 15.97 11.98 39.35 18.18 59.76 10.64 35.03 21.28 70.128 28.4 93.618" style="stroke:#1a83af;stroke-width:2"/><path fill="#1A83AF" d="m330.14 305.94 1.217-9.773-2.667 4.988-4.989-2.668z" style="stroke:#1a83af;stroke-width:2"/><path fill="none" d="M206.45 47.2c-29.6 12.04-61.22 30.88-78.45 59.59-18.64 31.06-6.568 69.265 4.672 94.055" style="stroke:#1a83af;stroke-width:2"/><path fill="#1A83AF" d="m135.15 206.31-.073-9.849-1.992 5.295-5.295-1.991z" style="stroke:#1a83af;stroke-width:2"/><path fill="none" d="M276 47.22v53.19" style="stroke:#1a83af;stroke-width:2"/><path fill="#1A83AF" d="m276 106.41 4-9-4 4-4-4z" style="stroke:#1a83af;stroke-width:2"/><path fill="none" d="M345.55 47.2c29.6 12.04 61.22 30.88 78.45 59.59 41.14 68.55-27.779 155.43-64.589 194.74" style="stroke:#1a83af;stroke-width:2"/><path fill="#1A83AF" d="m355.31 305.91 9.071-3.835-5.653.185-.186-5.654z" style="stroke:#1a83af;stroke-width:2"/></svg>
